X: 0204
T: Bonnie Kitty - 8x42R
P: Archie Patterson
C: Nan Main
B: Miss Milligan's Miscellany v.2 #0204
B: Originally Ours v.1 p.179 #MMM-0204
Z: 2019 John Chambers <jc:trillian.mit.edu>
N: Adjusted the length of last note to fix the rhythm of repeats.
M: 4/4
L: 1/8
R: march, reel
K: D
%
A2 |:\
"D"F2A2 "A/D"A2Bc | "D"d2A2 "A/D"A2d2 | "G"B3A B2f2 | "E7"e6 "G/A7"f2 |\
"G"g2ag "F#/D"f2gf | "G/A7"e2fe "G"d2B2 | "E/A7"A3G F2E2 |1 "D"D6 A2 :|2 D6 B2 ||
"D"A2d2 "A/D"defg | "D"agfe "A/D"d2A2 | "G"B3A "G#/E7"B2f2 | "A"e6 f2 |\
"G"gabc' "F#/D"d'2b2 | "D"agfe d2ef | "E7"g3f e2d2 | "A"cdec "G/A7"ABcA |
|:\
"F#/D"d2A2 "D"A2df | "A"e2A2 "C#/A7"A2eg | "F#/D"f2d2 "D"d2fa | "Bm"d'6 "A7"A2 |\
"G"B2cd "E/A7"e2fg | "D"a2bc' "G"d'2c'b | "D"a3b "E/A7"a2c2 |1 "D"d6 A2 :|2 "D"d4 d2 |]
